!!!OTL: Tiandashiqing meigandang
!!!ARE: Asia, China, Fujian Yongding
!! II, 591
!!!SCT: C2012
!!!YEM: Copyright 1995, estate of Helmut Schaffrath.
**kern
*ICvox
*Ivox
!! Mixed meters:  2/4; 3/4
*M3/4
*k[]
*C:
{8dd
8dd
8dd
16cc
16dd
8dd
16cc
16a
=1
8dd
4.cc
16a
16g
16a
16r}
=2
{8dd
8dd
8dd
16cc
16dd
8dd
16cc
16a
=3
16cc
16a
8g
2a}
=4
*M2/4
{8g
8g
8dd
8dd
=5
*M3/4
8dd
16cc
16dd
16cc
16a
16a
16g
4a}
=6
*M2/4
{8a
8dd
8dd
8dd
=7
8dd
16a
16cc
8a
8g
=8
16a
16g
4.g}
==
!!!AGN: Shange, Jinsha shange
!!!AMT: irregular
!!!AIN: vox
!!!EED: Helmut Schaffrath
!!!EEV: 1.0
*-
